X:16
T:Lazy Mary
%%score 1 { 2 | 3 }
L:1/8
M:6/8
I:linebreak $
K:Bb
V:1 treble nm="Violin"
V:2 treble nm="Piano" snm="Pno."
V:3 bass 
V:1
"Bb" B2 B BBd | f2 d B2 B |"F7" c2 c c2 c | A2 G F3 |$"Bb" B2 B BBd | f2 d B2 B |"F7" c2 c F2 F | 
w: La- zy Ma- ry, will|you get up, Will|you get up, will|you get up?|La- zy Ma- ry, will|you get up, Will|you get up, to-|
"Bb" B3- B2 F |$"Bb" B2 B BBd | f2 d B2 B |"F7" c2 c c2 c | A2 G F3 |$"Bb" B2 B BBd | f2 d B2 B | 
w: day? _ _|No, my moth- er, I|won't get up, I|won't get up, I|won't get up.|No, my moth- er I|won't get up, I|
"F7" c2 c F2 F |"Bb" B3- B2 z |] 
w: won't get up to-|day. _|
V:2
[DB]2 B [DB]Bd | [Bf]2 d [FB]2 B | [Ec]2 c [Ec]2 c | [CA]2 G [CF]3 |$ [DB]2 B [FB]Bd | 
[Bf]2 d [FB]2 B | [Ec]2 c [CF]2 F | [DB]3- [DB]2 z |$ [DB]2 B [DB]Bd | [Bf]2 d [FB]2 B | 
[Ec]2 c [Ec]2 c | [CA]2 G [CF]3 |$ [DB]2 B [FB]Bd | [Bf]2 d [FB]2 B | [Ec]2 c [CF]2 F | 
[DB]3- [DB]2 z |] 
V:3
[B,,F,B,]3 [D,F,B,]3 | [B,,F,B,]3 [D,F,B,]3 | [C,F,A,]3 [F,A,]3 | [F,,C,F,]3 [C,F,A,]3 |$ 
[B,,F,B,]3 [D,F,B,]3 | [B,,F,B,]3 [D,F,B,]3 | [C,F,A,]3 [F,A,]3 | [B,,F,B,]3- [B,,F,B,]2 z |$ 
[B,,F,B,]3 [D,F,B,]3 | [B,,F,B,]3 [D,F,B,]3 | [C,F,A,]3 [F,A,]3 | [F,,C,F,]3 [C,F,A,]3 |$ 
[B,,F,B,]3 [D,F,B,]3 | [B,,F,B,]3 [D,F,B,]3 | [C,F,A,]3 [F,A,]3 | [B,,F,B,]3- [B,,F,B,]2 z |] 



